packages/ui-icons/svg/Solid/add.svg

<svg viewBox="0 0 1920 1920" version="1.1" xmlns="http://www.w3.org/2000/svg">
    <path d="M866.331875 213L866.331875 866.331875 213 866.331875 213 1052.99813 866.331875 1052.99813 866.331875 1706.33 1052.99813 1706.33 1052.99813 1052.99813 1706.33 1052.99813 1706.33 866.331875 1052.99813 866.331875 1052.99813 213z" stroke="none" stroke-width="1" fill-rule="evenodd"/>
</svg>

<svg viewBox="0 0 1920 1920" xmlns="http://www.w3.org/2000/svg">
    <path d="M866.332 213v653.332H213v186.666h653.332v653.332h186.666v-653.332h653.332V866.332h-653.332V213z" fill-rule="evenodd"/>
</svg>
